svg/u26ea.svg

<svg viewBox="0 0 128 128" xmlns="http://www.w3.org/2000/svg">
  <polygon points="71.8,8.78 65.97,8.78 65.99,1.62 61.59,1.62 61.6,8.78 55.64,8.78 55.64,12.84 61.61,12.84 61.65,26.03 65.93,24.25 65.96,12.84 71.8,12.84 " fill="#614F46"/>
  <path d="M49.69,59.86c0,0-33.63,30.89-33.55,31.37c0.08,0.48,3.62,3.06,3.62,3.06L53,83.73L49.69,59.86z" fill="#896159"/>
  <path d="M78,58.32c0,0,34.27,32.47,34.1,33.1c-0.12,0.47-3.76,1.97-3.76,1.97S72.7,76.05,72.79,75.23 C72.88,74.41,78,58.32,78,58.32z" fill="#896159"/>
  <path d="M49.75,66.45L19.69,94.23c0,0-0.01,27.26-0.01,28.2s0.5,1.33,1.35,1.42s86.87,0.29,87.34,0.11 c0.07-0.03,0.19-1.46,0.17-2.5c-0.09-6.45-0.07-28.13-0.07-28.13L77.52,64.63L49.75,66.45z" fill="#C0B8B3"/>
  <path d="M45.4,44.39c-0.22-1.2,2.22-2.08,3.08-3.22S59,26.21,60.14,24.7c1.15-1.5,2.22-3.36,3.51-3.36 c1.29,0,3.25,3,4.29,4.37c1.57,2.08,10.46,14.38,11.02,15.03c0.86,1,3.08,2.22,3.08,3.08c0,0.79-4.65,4.51-4.65,4.51l-28.13-1.15 C49.26,47.18,45.68,45.96,45.4,44.39z" fill="#896159"/>
  <path d="M48.61,45.07c0,0,29.72-0.61,29.86-0.25s0.13,4.82,0.13,4.82L60.5,51.76l-11.95-2.08L48.61,45.07z" fill="#BDB8B1"/>
  <polygon points="48.77,121.38 48.55,49.68 78.6,49.6 79.63,121.38 " fill="#5F4D4E"/>
  <polygon points="106.08,95.87 82.21,74.17 82.75,121.29 106.17,121.38 " fill="#EFEBEA"/>
  <polygon points="45.07,75.99 21.92,96.87 21.02,113.3 22.11,121.38 45.44,121.38 " fill="#EFEBEA"/>
  <polygon points="50.98,49.57 51.43,121.38 77.26,121.39 76.58,49.6 " fill="#EFEBEA"/>
  <polygon points="106.08,95.87 108.52,98.23 108.55,121.45 106.17,121.38 " fill="#5F4D4E"/>
  <polygon points="21.92,96.87 19.68,99.07 19.68,121.45 22.11,121.38 " fill="#5F4D4E"/>
  <path d="M54.44,121.38c0,0-0.21-18.88-0.16-24.07c0.06-5.18,3.19-10.16,9.74-10.14 c6.99,0.02,9.86,4.88,9.86,10.32c0,5.02,0.18,23.9,0.18,23.9L54.44,121.38z" fill="#D27856"/>
  <polygon points="69.55,100.05 65.79,100.05 65.79,93.27 62.49,93.27 62.49,100.05 58.67,100.05 58.67,103.46 62.49,103.46 62.49,117.19 65.79,117.19 65.79,103.46 69.55,103.46 " fill="#AC5832"/>
  <path d="M72.35,120l-16.32-0.13l0-0.74c0-0.86-0.04-21.17,0-22.08c0.08-1.83,0.89-7.8,7.91-8.01 c2.49-0.06,4.47,0.6,5.92,2.01c2.26,2.2,2.38,5.41,2.38,6.04c0,1.31,0.11,22.16,0.11,22.16L72.35,120z M57.53,118.39l13.31,0.1 c-0.02-3.76-0.11-20.25-0.11-21.41c0-0.32-0.05-3.15-1.92-4.96c-1.14-1.11-2.78-1.64-4.83-1.58c-5.57,0.16-6.37,4.65-6.45,6.58 C57.5,97.8,57.52,110.92,57.53,118.39z" fill="#AC5832"/>
  <path d="M70.4,104.6c-0.87,0.03-0.87,0.86-0.87,2.34c0,1.48-0.03,2.36,0.93,2.38 c0.99,0.03,0.89-1.04,0.85-2.47C71.29,105.72,71.48,104.56,70.4,104.6z" fill="#F5BF0A"/>
  <polygon points="29.83,96.41 29.84,106.94 32.75,115.27 34.9,115.27 37.81,106.23 37.9,96.41 " fill="#E4BBAB"/>
  <path d="M29.84,106.68c0,0,1.61,0.86,2.22,3.18c0.61,2.32,0.69,5.42,0.69,5.42s-1.66,0.03-2.15,0 c-0.69-0.04-0.67-0.72-0.72-1.25S29.84,106.68,29.84,106.68z" fill="#6DA5B0"/>
  <path d="M37.81,106.23c0,0-1.51,0.55-2.28,3.4c-0.67,2.47-0.63,5.64-0.63,5.64s1.84,0,2.33,0 c0.49,0,0.67-0.72,0.67-1.16C37.9,113.66,37.81,106.23,37.81,106.23z" fill="#6DA5B0"/>
  <path d="M37.85,101.07c0,0-1.75,1.55-4.06,1.55c-2.56,0-3.96-1.75-3.96-1.75l0,3.56c0,0,1.17,0.24,2.46,1.34 c0.87,0.75,1.44,2.26,1.44,2.26s0.35-1.36,1.5-2.46c1.32-1.26,2.58-1.47,2.58-1.47L37.85,101.07z" fill="#FCCB7E"/>
  <path d="M29.8,96.23c-0.05,1.5,0.85,4.19,4.15,4.2c2.94,0.01,3.94-2.26,3.94-4.11s-1.03-4.14-4.13-4.18 C31.33,92.12,29.87,94.1,29.8,96.23z" fill="#9F7CDC"/>
  <path d="M33.86,94.57c-0.97,0.02-1.66,0.58-1.75,1.61s0.76,1.87,1.8,1.87c1.04,0,1.8-0.87,1.73-1.89 C35.59,95.26,34.86,94.54,33.86,94.57z" fill="#D05E53"/>
  <polygon points="90.18,96.5 90.24,106.72 93.18,115.02 95.3,115.02 98.27,105.9 98.24,96.18 " fill="#E4BBAB"/>
  <path d="M95.19,115.02c0,0,0.08-3.89,0.61-5.32c0.73-1.97,2.48-3.8,2.48-3.8s0,7.34,0,7.83 s-0.05,1.25-0.48,1.27C97.2,115.04,95.19,115.02,95.19,115.02z" fill="#6DA5B0"/>
  <path d="M90.24,106.72c0,0,1.48,0.6,2.28,2.73c0.81,2.17,0.67,5.56,0.67,5.56s-1.85-0.04-2.22-0.05 c-0.77-0.04-0.78-0.61-0.75-1.58C90.23,112.51,90.24,106.72,90.24,106.72z" fill="#6DA5B0"/>
  <path d="M90.21,100.67l0.03,3.28c0,0,1.52,0.69,2.31,1.45c0.85,0.81,1.62,2.31,1.62,2.31s0.86-1.81,1.66-2.52 c1.25-1.12,2.43-1.52,2.43-1.52l-0.01-2.93c0,0-1.63,1.8-4.15,1.73S90.21,100.67,90.21,100.67z" fill="#FCCB7E"/>
  <path d="M94.21,91.99c-1.81-0.04-3.94,1.3-4.02,4.22c-0.08,2.76,2.25,4.06,4.14,3.98s3.82-1.18,3.92-4.02 C98.34,93.1,95.94,92.03,94.21,91.99z" fill="#9F7CDC"/>
  <path d="M94.24,94.36c-0.95,0-1.74,0.71-1.7,1.85c0.04,1.14,0.8,1.73,1.75,1.73c1.02,0,1.75-0.55,1.76-1.92 C96.07,94.99,95.4,94.36,94.24,94.36z" fill="#D05E53"/>
  <path d="M63.66,55.32c-7.3-0.04-10.92,5.75-10.61,11.29c0.34,6.05,4.45,10.37,10.85,10.29 c6.75-0.09,10.51-4.93,10.46-11.11C74.32,59.65,69.94,55.35,63.66,55.32z" fill="#63697F"/>
  <path d="M63.43,56.79c-5.1,0.13-8.99,4.15-9.04,9.56c-0.04,5.28,4.15,9.04,9.21,9.08 c4.84,0.04,9.12-3.24,9.34-9.08C73.17,60.14,68.48,56.66,63.43,56.79z" fill="#6DA5B0"/>
  <path d="M63.85,61.51c-2.83-0.1-4.71,1.9-4.69,4.58c0.02,2.31,1.32,4.77,4.6,4.78 c3.06,0.02,4.7-2.18,4.74-4.51C68.52,64.27,67.58,61.64,63.85,61.51z" fill="#E4BBAB"/>
  <path d="M69.1,63.22l1.6-0.94c-0.76-1.43-1.93-2.5-3.35-3.16l-0.72,1.83C67.65,61.43,68.52,62.2,69.1,63.22z" fill="#9F7CDC"/>
  <path d="M69.64,67.75l1.64,0.64c0.17-0.63,0.28-1.3,0.3-2.02c0.03-0.8-0.05-1.55-0.21-2.24l-1.73,0.47 c0.13,0.55,0.2,1.14,0.18,1.79C69.81,66.88,69.74,67.33,69.64,67.75z" fill="#FCCB7E"/>
  <path d="M68.99,69.33c-0.5,0.82-1.21,1.45-2.02,1.9l0.93,1.65c1.08-0.63,2-1.52,2.65-2.67L68.99,69.33z" fill="#9F7CDC"/>
  <path d="M65.63,71.76c-0.59,0.16-1.22,0.25-1.86,0.24c-0.45,0-0.89-0.06-1.31-0.15l-0.48,1.96 c0.54,0.11,1.1,0.18,1.67,0.18c0.9,0.01,1.76-0.13,2.58-0.38L65.63,71.76z" fill="#FCCB7E"/>
  <path d="M58.86,69.43l-1.75,1.19c0.76,1.12,1.82,2.01,3.07,2.59l0.98-1.81 C60.22,70.95,59.43,70.28,58.86,69.43z" fill="#9F7CDC"/>
  <path d="M58.09,64.64l-1.97-0.42c-0.18,0.68-0.28,1.4-0.29,2.15c-0.01,0.98,0.18,1.89,0.49,2.72l1.91-0.9 c-0.2-0.56-0.32-1.15-0.35-1.79C57.87,65.78,57.94,65.19,58.09,64.64z" fill="#FCCB7E"/>
  <g>
    <path d="M59.71,59.42c-1.21,0.71-2.2,1.72-2.88,2.98l1.76,1c0.51-0.94,1.28-1.7,2.21-2.22L59.71,59.42z" fill="#9F7CDC"/>
    <path d="M63.51,58.35c-0.74,0.02-1.45,0.14-2.12,0.34l0.69,1.94c0.52-0.15,1.06-0.24,1.63-0.26 c0.51-0.01,1.01,0.04,1.5,0.13l0.39-1.95C64.92,58.4,64.22,58.33,63.51,58.35z" fill="#FCCB7E"/>
  </g>
</svg>

<svg viewBox="0 0 128 128" xmlns="http://www.w3.org/2000/svg">
  <defs/>
  <path d="M71.8,8.78 L65.97,8.78 L65.99,1.62 L61.59,1.62 L61.6,8.78 L55.64,8.78 L55.64,12.84 L61.61,12.84 L61.65,26.03 L65.93,24.25 L65.96,12.84 L71.8,12.84 Z" fill="#614F46"/>
  <path d="M49.69,59.86 C49.69,59.86 16.06,90.75 16.14,91.23 C16.22,91.71 19.76,94.29 19.76,94.29 L53,83.73 L49.69,59.86 Z" fill="#896159"/>
  <path d="M78,58.32 C78,58.32 112.27,90.79 112.1,91.42 C111.98,91.89 108.34,93.39 108.34,93.39 C108.34,93.39 72.7,76.05 72.79,75.23 C72.88,74.41 78,58.32 78,58.32 Z" fill="#896159"/>
  <path d="M49.75,66.45 L19.69,94.23 C19.69,94.23 19.68,121.49 19.68,122.43 C19.68,123.37 20.18,123.76 21.03,123.85 C21.88,123.94 107.9,124.14 108.37,123.96 C108.44,123.93 108.56,122.5 108.54,121.46 C108.45,115.01 108.47,93.33 108.47,93.33 L77.52,64.63 L49.75,66.45 Z" fill="#C0B8B3"/>
  <path d="M45.4,44.39 C45.18,43.19 47.62,42.31 48.48,41.17 C49.34,40.03 59,26.21 60.14,24.7 C61.29,23.2 62.36,21.34 63.65,21.34 C64.94,21.34 66.9,24.34 67.94,25.71 C69.51,27.79 78.4,40.09 78.96,40.74 C79.82,41.74 82.04,42.96 82.04,43.82 C82.04,44.61 77.39,48.33 77.39,48.33 L49.26,47.18 C49.26,47.18 45.68,45.96 45.4,44.39 Z" fill="#896159"/>
  <path d="M48.61,45.07 C48.61,45.07 78.33,44.46 78.47,44.82 C78.61,45.18 78.6,49.64 78.6,49.64 L60.5,51.76 L48.55,49.68 L48.61,45.07 Z" fill="#BDB8B1"/>
  <path d="M48.77,121.38 L48.55,49.68 L78.6,49.6 L79.63,121.38 Z" fill="#5F4D4E"/>
  <path d="M106.08,95.87 L82.21,74.17 L82.75,121.29 L106.17,121.38 Z" fill="#EFEBEA"/>
  <path d="M45.07,75.99 L21.92,96.87 L21.02,113.3 L22.11,121.38 L45.44,121.38 Z" fill="#EFEBEA"/>
  <path d="M50.98,49.57 L51.43,121.38 L77.26,121.39 L76.58,49.6 Z" fill="#EFEBEA"/>
  <path d="M106.08,95.87 L108.52,98.23 L108.55,121.45 L106.17,121.38 Z" fill="#5F4D4E"/>
  <path d="M21.92,96.87 L19.68,99.07 L19.68,121.45 L22.11,121.38 Z" fill="#5F4D4E"/>
  <path d="M54.44,121.38 C54.44,121.38 54.23,102.5 54.28,97.31 C54.34,92.13 57.47,87.15 64.02,87.17 C71.01,87.19 73.88,92.05 73.88,97.49 C73.88,102.51 74.06,121.39 74.06,121.39 L54.44,121.38 Z" fill="#D27856"/>
  <path d="M69.55,100.05 L65.79,100.05 L65.79,93.27 L62.49,93.27 L62.49,100.05 L58.67,100.05 L58.67,103.46 L62.49,103.46 L62.49,117.19 L65.79,117.19 L65.79,103.46 L69.55,103.46 Z" fill="#AC5832"/>
  <path d="M72.35,120 L56.03,119.87 L56.03,119.13 C56.03,118.27 55.99,97.96 56.03,97.05 C56.11,95.22 56.92,89.25 63.94,89.04 C66.43,88.98 68.41,89.64 69.86,91.05 C72.12,93.25 72.24,96.46 72.24,97.09 C72.24,98.4 72.35,119.25 72.35,119.25 L72.35,120 Z M57.53,118.39 L70.84,118.49 C70.82,114.73 70.73,98.24 70.73,97.08 C70.73,96.76 70.68,93.93 68.81,92.12 C67.67,91.01 66.03,90.48 63.98,90.54 C58.41,90.7 57.61,95.19 57.53,97.12 C57.5,97.8 57.52,110.92 57.53,118.39 Z" fill="#AC5832"/>
  <path d="M70.4,104.6 C69.53,104.63 69.53,105.46 69.53,106.94 C69.53,108.42 69.5,109.3 70.46,109.32 C71.45,109.35 71.35,108.28 71.31,106.85 C71.29,105.72 71.48,104.56 70.4,104.6 Z" fill="#F5BF0A"/>
  <path d="M29.83,96.41 L29.84,106.94 L32.75,115.27 L34.9,115.27 L37.81,106.23 L37.9,96.41 Z" fill="#E4BBAB"/>
  <path d="M29.84,106.68 C29.84,106.68 31.45,107.54 32.06,109.86 C32.67,112.18 32.75,115.28 32.75,115.28 C32.75,115.28 31.09,115.31 30.6,115.28 C29.91,115.24 29.93,114.56 29.88,114.03 C29.83,113.5 29.84,106.68 29.84,106.68 Z" fill="#6DA5B0"/>
  <path d="M37.81,106.23 C37.81,106.23 36.3,106.78 35.53,109.63 C34.86,112.1 34.9,115.27 34.9,115.27 C34.9,115.27 36.74,115.27 37.23,115.27 C37.72,115.27 37.9,114.55 37.9,114.11 C37.9,113.66 37.81,106.23 37.81,106.23 Z" fill="#6DA5B0"/>
  <path d="M37.85,101.07 C37.85,101.07 36.1,102.62 33.79,102.62 C31.23,102.62 29.83,100.87 29.83,100.87 L29.83,104.43 C29.83,104.43 31,104.67 32.29,105.77 C33.16,106.52 33.73,108.03 33.73,108.03 C33.73,108.03 34.08,106.67 35.23,105.57 C36.55,104.31 37.81,104.1 37.81,104.1 L37.85,101.07 Z" fill="#FCCB7E"/>
  <path d="M29.8,96.23 C29.75,97.73 30.65,100.42 33.95,100.43 C36.89,100.44 37.89,98.17 37.89,96.32 C37.89,94.47 36.86,92.18 33.76,92.14 C31.33,92.12 29.87,94.1 29.8,96.23 Z" fill="#9F7CDC"/>
  <path d="M33.86,94.57 C32.89,94.59 32.2,95.15 32.11,96.18 C32.02,97.21 32.87,98.05 33.91,98.05 C34.95,98.05 35.71,97.18 35.64,96.16 C35.59,95.26 34.86,94.54 33.86,94.57 Z" fill="#D05E53"/>
  <path d="M90.18,96.5 L90.24,106.72 L93.18,115.02 L95.3,115.02 L98.27,105.9 L98.24,96.18 Z" fill="#E4BBAB"/>
  <path d="M95.19,115.02 C95.19,115.02 95.27,111.13 95.8,109.7 C96.53,107.73 98.28,105.9 98.28,105.9 C98.28,105.9 98.28,113.24 98.28,113.73 C98.28,114.22 98.23,114.98 97.8,115 C97.2,115.04 95.19,115.02 95.19,115.02 Z" fill="#6DA5B0"/>
  <path d="M90.24,106.72 C90.24,106.72 91.72,107.32 92.52,109.45 C93.33,111.62 93.19,115.01 93.19,115.01 C93.19,115.01 91.34,114.97 90.97,114.96 C90.2,114.92 90.19,114.35 90.22,113.38 C90.23,112.51 90.24,106.72 90.24,106.72 Z" fill="#6DA5B0"/>
  <path d="M90.21,100.67 L90.24,103.95 C90.24,103.95 91.76,104.64 92.55,105.4 C93.4,106.21 94.17,107.71 94.17,107.71 C94.17,107.71 95.03,105.9 95.83,105.19 C97.08,104.07 98.26,103.67 98.26,103.67 L98.25,100.74 C98.25,100.74 96.62,102.54 94.1,102.47 C91.58,102.4 90.21,100.67 90.21,100.67 Z" fill="#FCCB7E"/>
  <path d="M94.21,91.99 C92.4,91.95 90.27,93.29 90.19,96.21 C90.11,98.97 92.44,100.27 94.33,100.19 C96.22,100.11 98.15,99.01 98.25,96.17 C98.34,93.1 95.94,92.03 94.21,91.99 Z" fill="#9F7CDC"/>
  <path d="M94.24,94.36 C93.29,94.36 92.5,95.07 92.54,96.21 C92.58,97.35 93.34,97.94 94.29,97.94 C95.31,97.94 96.04,97.39 96.05,96.02 C96.07,94.99 95.4,94.36 94.24,94.36 Z" fill="#D05E53"/>
  <path d="M63.66,55.32 C56.36,55.28 52.74,61.07 53.05,66.61 C53.39,72.66 57.5,76.98 63.9,76.9 C70.65,76.81 74.41,71.97 74.36,65.79 C74.32,59.65 69.94,55.35 63.66,55.32 Z" fill="#63697F"/>
  <path d="M63.43,56.79 C58.33,56.92 54.44,60.94 54.39,66.35 C54.35,71.63 58.54,75.39 63.6,75.43 C68.44,75.47 72.72,72.19 72.94,66.35 C73.17,60.14 68.48,56.66 63.43,56.79 Z" fill="#6DA5B0"/>
  <path d="M63.85,61.51 C61.02,61.41 59.14,63.41 59.16,66.09 C59.18,68.4 60.48,70.86 63.76,70.87 C66.82,70.89 68.46,68.69 68.5,66.36 C68.52,64.27 67.58,61.64 63.85,61.51 Z" fill="#E4BBAB"/>
  <path d="M69.1,63.22 L70.7,62.28 C69.94,60.85 68.77,59.78 67.35,59.12 L66.63,60.95 C67.65,61.43 68.52,62.2 69.1,63.22 Z" fill="#9F7CDC"/>
  <path d="M69.64,67.75 L71.28,68.39 C71.45,67.76 71.56,67.09 71.58,66.37 C71.61,65.57 71.53,64.82 71.37,64.13 L69.64,64.6 C69.77,65.15 69.84,65.74 69.82,66.39 C69.81,66.88 69.74,67.33 69.64,67.75 Z" fill="#FCCB7E"/>
  <path d="M68.99,69.33 C68.49,70.15 67.78,70.78 66.97,71.23 L67.9,72.88 C68.98,72.25 69.9,71.36 70.55,70.21 L68.99,69.33 Z" fill="#9F7CDC"/>
  <path d="M65.63,71.76 C65.04,71.92 64.41,72.01 63.77,72 C63.32,72 62.88,71.94 62.46,71.85 L61.98,73.81 C62.52,73.92 63.08,73.99 63.65,73.99 C64.55,74 65.41,73.86 66.23,73.61 L65.63,71.76 Z" fill="#FCCB7E"/>
  <path d="M58.86,69.43 L57.11,70.62 C57.87,71.74 58.93,72.63 60.18,73.21 L61.16,71.4 C60.22,70.95 59.43,70.28 58.86,69.43 Z" fill="#9F7CDC"/>
  <path d="M58.09,64.64 L56.12,64.22 C55.94,64.9 55.84,65.62 55.83,66.37 C55.82,67.35 56.01,68.26 56.32,69.09 L58.23,68.19 C58.03,67.63 57.91,67.04 57.88,66.4 C57.87,65.78 57.94,65.19 58.09,64.64 Z" fill="#FCCB7E"/>
  <path d="M59.71,59.42 C58.5,60.13 57.51,61.14 56.83,62.4 L58.59,63.4 C59.1,62.46 59.87,61.7 60.8,61.18 L59.71,59.42 Z" fill="#9F7CDC"/>
  <path d="M63.51,58.35 C62.77,58.37 62.06,58.49 61.39,58.69 L62.08,60.63 C62.6,60.48 63.14,60.39 63.71,60.37 C64.22,60.36 64.72,60.41 65.21,60.5 L65.6,58.55 C64.92,58.4 64.22,58.33 63.51,58.35 Z" fill="#FCCB7E"/>
</svg>
